src/assets/svg/linkedin.svg

<?xml version="1.0" encoding="UTF-8"?>
<svg width="17px" height="18px" viewBox="0 0 17 18" version="1.1" xmlns="http://www.w3.org/2000/svg" xmlns:xlink="http://www.w3.org/1999/xlink">
    <!-- Generator: Sketch 51.3 (57544) - http://www.bohemiancoding.com/sketch -->
    <title>linkedin-logo@1x</title>
    <desc>Created with Sketch.</desc>
    <defs></defs>
    <g id="Page-1" stroke="none" stroke-width="1" fill="none" fill-rule="evenodd">
        <g id="About" transform="translate(-166.000000, -477.000000)" fill="#323232" fill-rule="nonzero">
            <g id="linkedin-logo" transform="translate(166.336637, 477.427892)">
                <path d="M0.963108086,4.07701718 C0.491627919,4.07701718 0.109389773,4.45925532 0.109389773,4.93073549 L0.109389773,16.4728933 C0.109389773,16.9443734 0.491627919,17.3266116 0.963108086,17.3266116 C1.43458825,17.3266116 1.8168264,16.9443734 1.8168264,16.4728933 L1.8168264,4.93073549 C1.8168264,4.45914149 1.43458825,4.07701718 0.963108086,4.07701718 Z" id="Shape"></path>
                <path d="M7.91237515,13.9502126 L7.91237515,16.4728933 C7.91237515,16.9443734 7.53013701,17.3266116 7.05865684,17.3266116 C6.58717667,17.3266116 6.20493853,16.9443734 6.20493853,16.4728933 L6.20493853,13.9502126 L6.20493853,9.81821592 L6.20493853,4.93073549 C6.20493853,4.45925532 6.58717667,4.07701718 7.05865684,4.07701718 C7.53013701,4.07701718 7.91237515,4.45925532 7.91237515,4.93073549 L7.91237515,6.14164954 C8.7536861,5.42782721 9.8412094,4.99595957 11.0283332,4.99595957 C13.6879503,4.99595957 15.8515002,7.15962326 15.8515002,9.81924038 L15.8515002,16.4728933 C15.8515002,16.9443734 15.4693758,17.3266116 14.9977818,17.3266116 C14.5263017,17.3266116 14.1440635,16.9443734 14.1440635,16.4728933 L14.1440635,9.81924038 C14.1440635,8.10110382 12.7463559,6.70339619 11.0283332,6.70339619 C9.31019661,6.70339619 7.91237515,8.10110382 7.91237515,9.81924038 L7.91237515,13.9502126 Z" id="Combined-Shape"></path>
                <path d="M0.962880428,1.70743663 C1.18712377,1.70743663 1.40795224,1.61637334 1.56731299,1.45815088 C1.72553545,1.29879013 1.81659874,1.07909995 1.81659874,0.854856604 C1.81659874,0.62947497 1.72553545,0.40978479 1.56731299,0.250424039 C1.40795224,0.0922015778 1.18712377,8.8817842e-16 0.962880428,8.8817842e-16 C0.738637084,8.8817842e-16 0.518946905,0.0922015778 0.359586153,0.250424039 C0.200225402,0.40978479 0.109162115,0.62947497 0.109162115,0.854856604 C0.109162115,1.07909995 0.200225402,1.29879013 0.359586153,1.45815088 C0.518946905,1.61637334 0.738637084,1.70743663 0.962880428,1.70743663 Z" id="Shape"></path>
            </g>
        </g>
    </g>
</svg>

<svg height="18" viewBox="0 0 17 18" width="17" xmlns="http://www.w3.org/2000/svg"><g fill="#323232" transform="translate(.336637 .427892)"><path d="m.96310809 4.07701718c-.47148017 0-.85371832.38223814-.85371832.85371831v11.54215781c0 .4714801.38223815.8537183.85371832.8537183.47148016 0 .85371831-.3822382.85371831-.8537183v-11.54215781c0-.471594-.38223815-.85371831-.85371831-.85371831z"/><path d="m7.91237515 13.9502126v2.5226807c0 .4714801-.38223814.8537183-.85371831.8537183s-.85371831-.3822382-.85371831-.8537183v-2.5226807-4.13199668-4.88748043c0-.47148017.38223814-.85371831.85371831-.85371831s.85371831.38223814.85371831.85371831v1.21091405c.84131095-.71382233 1.92883425-1.14568997 3.11595805-1.14568997 2.6596171 0 4.823167 2.16366369 4.823167 4.82328081v6.65365292c0 .4714801-.3821244.8537183-.8537184.8537183-.4714801 0-.8537183-.3822382-.8537183-.8537183v-6.65365292c0-1.71813656-1.3977076-3.11584419-3.1157303-3.11584419-1.71813659 0-3.11595805 1.39770763-3.11595805 3.11584419z"/><path d="m.96288043 1.70743663c.22424334 0 .44507181-.09106329.60443256-.24928575.15822246-.15936075.24928575-.37905093.24928575-.60329428 0-.22538163-.09106329-.44507181-.24928575-.60443256-.15936075-.15822246-.38018922-.25042404-.60443256-.25042404-.22424335 0-.44393353.09220158-.60329428.25042404-.15936075.15936075-.25042403.37905093-.25042403.60443256 0 .22424335.09106328.44393353.25042403.60329428.15936075.15822246.37905093.24928575.60329428.24928575z"/></g></svg>
